img/coffee-bean.svg

<svg width="73" height="72" viewBox="0 0 73 72" fill="none" xmlns="http://www.w3.org/2000/svg">
<g id="coffee-bean">
<path id="Shape" fill-rule="evenodd" clip-rule="evenodd" d="M59.0481 13.1037C66.3077 20.4657 70.8383 29.7448 71.8057 39.2263C72.7952 48.8834 69.9819 57.6044 63.8937 63.774C58.5999 69.1425 51.4112 72 43.3706 72C42.1592 72 40.93 71.9325 39.6831 71.802C30.3334 70.821 21.1834 66.2265 13.9238 58.8644C-1.19016 43.5373 -3.36451 20.8122 9.07807 8.19415C21.5118 -4.42828 43.9297 -2.21877 59.0481 13.1037ZM33.5284 40.0363C39.3592 41.6563 44.7285 43.1728 49.6806 47.0069C53.5639 50.0144 56.3299 53.8364 59.1269 57.7013C60.4146 59.4806 61.7088 61.2689 63.1216 62.9911C61.4887 48.6585 54.3843 36.3464 40.0248 32.1209C39.8009 32.0552 39.5778 31.9897 39.3553 31.9245C33.077 30.0836 27.3438 28.4026 22.1197 24.0479C18.76 21.2453 16.2865 17.7667 13.799 14.2682C12.5279 12.4806 11.2532 10.6878 9.85462 8.97729C11.5586 23.5347 18.8493 35.9548 33.5284 40.0363Z" fill="#FDD6BA"/>
</g>
</svg>

<svg xmlns="http://www.w3.org/2000/svg" width="73" height="72" fill="none"><path fill="#FDD6BA" fill-rule="evenodd" d="M59.048 13.104c7.26 7.362 11.79 16.64 12.758 26.122.99 9.657-1.824 18.378-7.912 24.548C58.6 69.142 51.41 72 43.37 72c-1.212 0-2.441-.067-3.688-.198-9.35-.981-18.5-5.576-25.76-12.938C-1.19 43.537-3.364 20.812 9.079 8.194c12.434-12.622 34.852-10.413 49.97 4.91Zm-25.52 26.932c5.831 1.62 11.2 3.137 16.153 6.97 3.883 3.008 6.649 6.83 9.446 10.695 1.288 1.78 2.582 3.568 3.995 5.29-1.633-14.333-8.738-26.645-23.097-30.87l-.67-.197c-6.278-1.84-12.011-3.521-17.235-7.876-3.36-2.803-5.834-6.281-8.321-9.78-1.271-1.787-2.546-3.58-3.944-5.29 1.704 14.557 8.994 26.977 23.673 31.058Z" clip-rule="evenodd"/></svg>
